svgs/sharp-regular/car-bolt.svg

<svg xmlns="http://www.w3.org/2000/svg" viewBox="0 0 512 512"><!--! Font Awesome Pro 6.6.0 by @fontawesome - https://fontawesome.com License - https://fontawesome.com/license (Commercial License) Copyright 2024 Fonticons, Inc. --><path d="M120 32l-17 0L97.3 48.1 52.6 176 48 176 0 176l0 48L0 352l0 48 0 80 48 0 0-80 416 0 0 80 48 0 0-80 0-48 0-128 0-48-48 0-4.6 0L414.7 48.1 409 32l-17 0L120 32zM408.6 176L384 176l0 48 80 0 0 128L48 352l0-128 80 0 0-48-24.6 0L137 80 375 80l33.6 96zM112 320a32 32 0 1 0 0-64 32 32 0 1 0 0 64zm320-32a32 32 0 1 0 -64 0 32 32 0 1 0 64 0zM160 224l88 0-24 96L352 192l-88 0 24-96L160 224z"/></svg>

<svg xmlns="http://www.w3.org/2000/svg" viewBox="0 0 512 512"><!--! Font Awesome Pro 6.4.2 by @fontawesome - https://fontawesome.com License - https://fontawesome.com/license (Commercial License) Copyright 2023 Fonticons, Inc. --><path d="M120 32H103L97.3 48.1 52.6 176H48 0v48V352v48 80H48V400H464v80h48V400 352 224 176H464h-4.6L414.7 48.1 409 32H392 120zM408.6 176H384v48h80V352H48V224h80V176H103.4L137 80H375l33.6 96zM112 320a32 32 0 1 0 0-64 32 32 0 1 0 0 64zm320-32a32 32 0 1 0 -64 0 32 32 0 1 0 64 0zM160 224h88l-24 96L352 192H264l24-96L160 224z"/></svg>
